img/svg/comedy.svg

<svg xmlns="http://www.w3.org/2000/svg" preserveAspectRatio="xMidYMid" width="36" height="55" viewBox="0 0 36 55"><defs><style>.cls-2 { fill: #9ba9b0; }</style></defs><path d="M36 37c0 9.925-8.075 18-18 18s-18-8.075-18-18c0-4.936 2.019-9.392 5.25-12.646v-23.353c0-.427.27-.806.673-.945.4-.14.849-.009 1.113.327l15.01 19.103c7.979 1.843 13.954 8.983 13.954 17.514zm-28.75-33.107v19.855l13.237-3.009-13.237-16.846zm15.839 17.959c-.138.236-.345.426-.617.488l-16 3.637-.043.004c-2.736 2.873-4.429 6.748-4.429 11.019 0 8.822 7.178 16 16 16s16-7.178 16-16c0-7.041-4.58-13.016-10.911-15.148zm5.16 11.898c-.186 0-.373-.052-.541-.159l-7.375-4.75c-.464-.299-.598-.918-.299-1.382.299-.465.918-.598 1.382-.3l7.375 4.75c.465.299.599.918.3 1.382-.192.297-.513.459-.842.459zm-14.624 4.04c-1.095 0-1.981-.857-1.981-1.914 0-1.059.886-1.916 1.981-1.916 1.095 0 1.981.857 1.981 1.916 0 1.057-.886 1.914-1.981 1.914zm.924-7.51l-5.875 2.75c-.137.065-.281.095-.424.095-.376 0-.736-.213-.906-.576-.234-.5-.018-1.096.482-1.329l5.875-2.75c.501-.235 1.095-.019 1.33.481.234.5.018 1.096-.482 1.329zm5.97 5.596c0-1.059.886-1.916 1.981-1.916 1.095 0 1.981.857 1.981 1.916 0 1.057-.886 1.914-1.981 1.914-1.095 0-1.981-.857-1.981-1.914zm-10.828 4.124h16.618c.552 0 1 .447 1 1 0 4.349-4.35 8.163-9.309 8.163s-9.309-3.814-9.309-8.163c0-.553.448-1 1-1zm8.309 7.163c3.492 0 6.599-2.316 7.203-5.163h-14.406c.604 2.847 3.711 5.163 7.203 5.163z" id="path-1" class="cls-2" fill-rule="evenodd"/></svg>

<svg xmlns="http://www.w3.org/2000/svg" xmlns:xlink="http://www.w3.org/1999/xlink" preserveAspectRatio="xMidYMid" width="36" height="55" viewBox="0 0 36 55">
  <defs>
    <style>

      .cls-2 {
        fill: #9ba9b0;
      }
    </style>
  </defs>
  <path d="M36.000,37.000 C36.000,46.925 27.925,55.000 18.000,55.000 C8.075,55.000 -0.000,46.925 -0.000,37.000 C-0.000,32.064 2.019,27.608 5.250,24.354 C5.250,24.354 5.250,1.001 5.250,1.001 C5.250,0.574 5.520,0.195 5.923,0.056 C6.323,-0.084 6.772,0.047 7.036,0.383 C7.036,0.383 22.046,19.486 22.046,19.486 C30.025,21.329 36.000,28.469 36.000,37.000 ZM7.250,3.893 C7.250,3.893 7.250,23.748 7.250,23.748 C7.250,23.748 20.487,20.739 20.487,20.739 C20.487,20.739 7.250,3.893 7.250,3.893 ZM23.089,21.852 C22.951,22.088 22.744,22.278 22.472,22.340 C22.472,22.340 6.472,25.977 6.472,25.977 C6.458,25.980 6.443,25.979 6.429,25.981 C3.693,28.854 2.000,32.729 2.000,37.000 C2.000,45.822 9.178,53.000 18.000,53.000 C26.822,53.000 34.000,45.822 34.000,37.000 C34.000,29.959 29.420,23.984 23.089,21.852 ZM28.249,33.750 C28.063,33.750 27.876,33.698 27.708,33.591 C27.708,33.591 20.333,28.841 20.333,28.841 C19.869,28.542 19.735,27.923 20.034,27.459 C20.333,26.994 20.952,26.861 21.416,27.159 C21.416,27.159 28.791,31.909 28.791,31.909 C29.256,32.208 29.390,32.827 29.091,33.291 C28.899,33.588 28.578,33.750 28.249,33.750 ZM13.625,37.790 C12.530,37.790 11.644,36.933 11.644,35.876 C11.644,34.817 12.530,33.960 13.625,33.960 C14.720,33.960 15.606,34.817 15.606,35.876 C15.606,36.933 14.720,37.790 13.625,37.790 ZM14.549,30.280 C14.549,30.280 8.674,33.030 8.674,33.030 C8.537,33.095 8.393,33.125 8.250,33.125 C7.874,33.125 7.514,32.912 7.344,32.549 C7.110,32.049 7.326,31.453 7.826,31.220 C7.826,31.220 13.701,28.470 13.701,28.470 C14.202,28.235 14.796,28.451 15.031,28.951 C15.265,29.451 15.049,30.047 14.549,30.280 ZM20.519,35.876 C20.519,34.817 21.405,33.960 22.500,33.960 C23.595,33.960 24.481,34.817 24.481,35.876 C24.481,36.933 23.595,37.790 22.500,37.790 C21.405,37.790 20.519,36.933 20.519,35.876 ZM9.691,40.000 C9.691,40.000 26.309,40.000 26.309,40.000 C26.861,40.000 27.309,40.447 27.309,41.000 C27.309,45.349 22.959,49.163 18.000,49.163 C13.041,49.163 8.691,45.349 8.691,41.000 C8.691,40.447 9.139,40.000 9.691,40.000 ZM18.000,47.163 C21.492,47.163 24.599,44.847 25.203,42.000 C25.203,42.000 10.797,42.000 10.797,42.000 C11.401,44.847 14.508,47.163 18.000,47.163 Z" id="path-1" class="cls-2" fill-rule="evenodd"/>
</svg>
